X: 1
T: Granny Will Your Dog Bite?
R: march
Z: 2020 John Chambers <jc:trillian.mit.edu>
S: https://www.facebook.com/groups/Fiddletuneoftheday/
M: 2/4
L: 1/16
K: D
d2- |\
d2f2 g2^g2 | abag f2d2 | d2f2 g2^g2 | a2a2 [e4A4] |
[d2D2]f2 g2^g2 | abag f2d2 | d2[f2d2] fefg | a2a2 [e2A2] ||
|:z2 |\
[eA]fed c2A2 | .e2.A2 .e2.A2 | [eA]f[eA]d c2A2 | .e2.A2 [d2F2] :|
